assets/assets/icons/playstore.svg

<svg width="512" height="512" viewBox="0 0 512 512" fill="none" xmlns="http://www.w3.org/2000/svg">
<path d="M48 59.49V452.49C48.0026 453.343 48.2569 454.176 48.731 454.884C49.2051 455.593 49.8779 456.146 50.665 456.474C51.4521 456.802 52.3184 456.89 53.1554 456.727C53.9924 456.565 54.7628 456.159 55.37 455.56L260 256L55.37 56.42C54.7628 55.8214 53.9924 55.4153 53.1554 55.2528C52.3184 55.0902 51.4521 55.1784 50.665 55.5063C49.8779 55.8342 49.2051 56.3871 48.731 57.0958C48.2569 57.8045 48.0026 58.6374 48 59.49V59.49Z" fill="#9E9E9E"/>
<path d="M345.8 174L89.22 32.64L89.06 32.55C84.64 30.15 80.44 36.13 84.06 39.61L285.19 231.93L345.8 174Z" fill="#9E9E9E"/>
<path d="M84.08 472.39C80.44 475.87 84.64 481.85 89.08 479.45L89.24 479.36L345.8 338L285.19 280.05L84.08 472.39Z" fill="#9E9E9E"/>
<path d="M449.38 231L377.73 191.54L310.36 256L377.73 320.43L449.38 281C468.87 270.23 468.87 241.77 449.38 231Z" fill="#9E9E9E"/>
</svg>

<svg width="512px" height="512px" viewBox="0 0 512 512" xmlns="http://www.w3.org/2000/svg"><title>ionicons-v5_logos</title><path d="M48,59.49v393a4.33,4.33,0,0,0,7.37,3.07L260,256,55.37,56.42A4.33,4.33,0,0,0,48,59.49Z"/><path d="M345.8,174,89.22,32.64l-.16-.09c-4.42-2.4-8.62,3.58-5,7.06L285.19,231.93Z"/><path d="M84.08,472.39c-3.64,3.48.56,9.46,5,7.06l.16-.09L345.8,338l-60.61-57.95Z"/><path d="M449.38,231l-71.65-39.46L310.36,256l67.37,64.43L449.38,281C468.87,270.23,468.87,241.77,449.38,231Z"/></svg>
